src/img/ic_close_modal.svg

<svg width="18" height="32" viewBox="0 0 18 32" fill="none" xmlns="http://www.w3.org/2000/svg">
<path d="M16.8281 21.9844C16.9375 22.0938 16.9922 22.2344 16.9922 22.4062C16.9922 22.5781 16.9375 22.7188 16.8281 22.8281C16.7031 22.9375 16.5547 22.9922 16.3828 22.9922C16.2266 22.9922 16.0938 22.9375 15.9844 22.8281L9 15.8438L2.01562 22.8281C1.90625 22.9375 1.76563 22.9922 1.59375 22.9922C1.42187 22.9922 1.28125 22.9375 1.17188 22.8281C1.0625 22.7031 1.00781 22.5625 1.00781 22.4062C1.00781 22.2344 1.0625 22.0938 1.17188 21.9844L8.15625 15L1.17188 8.01562C1.0625 7.90625 1.00781 7.76562 1.00781 7.59375C1.00781 7.42188 1.0625 7.28125 1.17188 7.17188C1.29688 7.0625 1.4375 7.00781 1.59375 7.00781C1.76563 7.00781 1.90625 7.0625 2.01562 7.17188L9 14.1562L15.9844 7.17188C16.0938 7.0625 16.2344 7.00781 16.4062 7.00781C16.5781 7.00781 16.7188 7.0625 16.8281 7.17188C16.9375 7.29688 16.9922 7.44531 16.9922 7.61719C16.9922 7.77344 16.9375 7.90625 16.8281 8.01562L9.84375 15L16.8281 21.9844Z" fill="#EC7000"/>
</svg>

<svg width="18" height="32" fill="none" xmlns="http://www.w3.org/2000/svg"><path d="M16.828 21.984c.11.11.164.25.164.422a.57.57 0 01-.164.422.654.654 0 01-.445.164.542.542 0 01-.399-.164L9 15.844l-6.984 6.984a.571.571 0 01-.422.164.571.571 0 01-.422-.164.624.624 0 01-.164-.422.57.57 0 01.164-.422L8.156 15 1.172 8.016a.571.571 0 01-.164-.422c0-.172.054-.313.164-.422a.624.624 0 01.422-.164.57.57 0 01.422.164L9 14.156l6.984-6.984a.57.57 0 01.422-.164.57.57 0 01.422.164.65.65 0 01.164.445c0 .156-.055.29-.164.399L9.844 15l6.984 6.984z" fill="#EC7000"/></svg>
